X: 1134
T: Lovely Nancy
S:Wm.Tildesley, Swinton, Lancashire, 1860s
M: 3/4
L: 1/8
Q: 1/4 = 100
R: air / country dance
K: G Major
|: B>A |
G2 G2 G>B | A2 A2 A>c | B2 ge dB | A4 B>A |
G2 G2 G>B | A2 A2 A>c | B>g d>B c>A | G4 :|
|: B>c |
d2 d2 ge | e2 d2 B>c | d2 d2 (3geB | B2 A2 B>A |
G2 G2 G>B | A2 A2 A>c | B>g d>B c>A | G4 :|
